**kern	**kern	**kern
*staff3	*staff2	*staff1
*tb48	*tb48	*tb48
=1-	=1-	=1-
*clefF4	*clefG2	*clefG2
*k[b-e-]	*k[b-e-]	*k[b-e-]
*M3/4	*M3/4	*M3/4
4r	4d/	4d/
4r	4r	4r
4r	4r	4r
=2	=2	=2
*^	*^	*
8r	2.GG\	2.dd/	8r	8.dd\
8B-/	.	.	8d\ 8g\	.
.	.	.	.	16b-\
8B-/L	.	.	8d\L 8g\L	8g/
8B-/J	.	.	8d\J 8g\J	8d/
8B-/J	.	.	8d\J 8g\J	8g/
8B-/J	.	.	8d\J 8g\J	8b-\
=3	=3	=3	=3	=3
8r	2GG\	4dd/	8r	4dd\
(8B-/	.	.	8f\ 8g\	.
8B-/L	.	4cc#/	8e-\L 8g\L	4cc#\
8B-/	.	.	8e-\ 8g\	.
*v	*v	*	*	*
8GG/) 8B-/	4r	8e-\J 8g\J	8r
8FF#/J 8A/J	.	8e-\J 8a\J 8ccn\J	8ccn\
*	*v	*v	*
=4	=4	=4
8GG\L 8G\L	8d/L 8g/L 8b-/L	8b-\
8AA\ 8A\	8c/ 8f#/	8f#/
8BB-\ 8B-\	8d/ 8g/	8g/
8B-\	8d/	8d/
8B-\ 8d\	8g/	8g/
8B-\J 8d\J	8b-/J	8b-\
=5	=5	=5
!!linebreak:original
*^	*^	*
8r	(2.BB-\	2aa-/	8r	4ee-\
8F/L 8B-/L	.	.	8a-\L 8b-\L	.
8F/J 8B-/J	.	.	8a-\ 8b-\	4dd\
8F/J 8B-/J	.	.	8a-\ 8b-\	.
8BB-/J 8F/J 8B-/J	.	8r	8a-\ 8b-\	8r
8BBn/J 8F/J 8Bn/J	.	8aa-/	8a-\J 8dd\J	8dd\
*v	*v	*	*	*
*	*v	*v	*
=6	=6	=6
8C\L 8G\L 8c\L	8g\L 8ee-\L 8gg\L	4ee-\
8G\ 8c\	8g\ 8ee-\	.
8G\ 8c\	8g\ 8ee-\	8r
8C\ 8A-\ 8d\	8e-\ 8cc\ 8ee-\	8b#/
8C\ 8G\ 8c\	8e-\J 8cc\J	4cc'\
8G\J 8c\J	8r	.
=7	=7	=7
8e-\L	8g/L 8cc/L	8b-/
8d\	8f/ 8b-/	8a-/L
8c\	8e-/ 8a-/	8g/J
8B-\	8d/ 8g/	4f#/
8An\	8c/ 8f#/	.
8A\J	8c/J 8f#/J	8r
=8	=8	=8
*	*^	*
8GG/L 8A/L	4f#/	8e-\L	4cc\
8A/	.	8e-\	.
8B-/	4r	8d\ 8g\	4bn\
*^	*	*	*
8B-/	8G\L)	.	8d\	.
8B-/	8G\	4r	8g\J	8r
8B-/J	8G\J	.	8bn\J	8g/
*v	*v	*	*	*
*	*v	*v	*
=9	=9	=9
!!linebreak:original
*^	*^	*
8r	2.BB-\	2.dd/	8r	8.ff\
8G/L 8Bn/L	.	.	8d\L 8g\L	.
.	.	.	.	4g\ 4dd\
8G/J 8B/J	.	.	8d\J 8g\J	.
8G/J 8B/J	.	.	8d\J 8g\J	.
.	.	.	.	8bn/
8G/J 8B/J	.	.	8d\J 8g\J	.
.	.	.	.	8g/
8G/J 8B/J	.	.	8d\J 8g\J	.
.	.	.	.	16r
=10	=10	=10	=10	=10
8r	2.C\	2.gg/	8bn\L	4ff\
8c/L 8d/L	.	.	8g\J	.
8c/J 8e-/J	.	.	8cc\J	4ee-\
8c/J 8e-/J	.	.	8g\J	.
8c/J 8e-/J	.	.	8cc\J	4r
8c/J 8e-/J	.	.	8ee-\J	.
*v	*v	*	*	*
*	*v	*v	*
=11	=11	=11
8C\L	8a-\L 8aa-\L	2ee-\
8c\ 8e-\	8ee-\	.
8c\ 8e-\	8cc\	.
8c\ 8e-\	8a-\J	.
8BB-\	4g\ 4gg\	8dd\
8B-\J 8d\J	.	8g/
=12	=12	=12
8AAn\L	8f#/L 8ff#/L	2cc\
8A\ 8c\	8cc/	.
8A\ 8c\	8an/	.
8A\ 8c\	8f#/J	.
8AA-\	8ffn\	4cc\
8A-\J 8c\J	8r	.
=13	=13	=13
!!linebreak:original
8GG\L	8en/L 8een/L	4.cc\
8G\ 8c\	8cc/	.
8G\ 8c\	8g/	.
8G\ 8c\	8e/J	8g/
8GG\	4e-/ 4ee-/	8e-/L
8G\J 8c\J	.	8c/J
=14	=14	=14
*	*^	*
2FF/ 2F/	4a-/	8r	4a-/
.	.	8c\L 8e-\L	.
.	4g/	8Bn\ 8d\	4g/
.	.	8G\ 8B\	.
8r	8r	8B\ 8d\	8r
8FF/ 8F/	8g/	8B\J 8d\J	8g/
*	*v	*v	*
=15	=15	=15
8EE-/L 8E-/L	8c/L 8g/L 8cc/L	4cc\
8DD/ 8D/	8f#/	.
8EE-/ 8E-/	8g/	8r
8EEn/ 8E-/	8g/ 8cc/	8cc\
8FF/ 8F/	8a/ 8dd-/	4dd-\
8EE/J 8E-/J	8g/J	.
=16	=16	=16
8FF\L 8F\L	8a-/L	8r
8GG\ 8G\	16d/	8dd-\
.	16e-/JJ 16b-/JJ 16dd-/JJ	.
8AA-\ 8A-\	4f/ 4a-/ 4dd-/	4.ff\
8A-\ 8d-\	.	.
8A-\ 8d-\	4f/ 4a-/	.
8A-\J 8d-\J	.	8dd-\
=17	=17	=17
!!linebreak:original
2A\ 2e-\	8g-/L 8gg-/L	4dd-\
.	8ee-/	.
.	8cc/	4cc\
.	8a-/	.
4AA-\ 4A\	8c/ 8g-/	4r
.	8e-/J	.
=18	=18	=18
8GG\L 8G\L	4f/	8g/
8e-\	.	8cc\
8g\	12c/L 12e-/L 12g/L	8ee-\L
.	12g/ 12cc/	.
8f\	.	8dd\J
.	12cc/ 12ee-/	.
8e-\	12a-/ 12dd/	8cc\L
.	12g/ 12cc/	.
8d\J	.	8b-\J
.	12f/J 12b-/J	.
=19	=19	=19
8G\L 8c\L	8e-/L 8a-/L	8a-/
8An\J	8c/ 8f#/	8f#/
4G\ 4Bn\	8d/ 8g/	(4g/
.	8d/	.
4GG\ 4A\	8e-/ 8f#/ 8cc/	4cc\)
.	8c/J	.
=20	=20	=20
8GG\L 8G\L	8d/L 8g/L 8bn/L	4bn/
8D\	8G/ 8Bn/	.
8G\	8B/ 8d/	4r
8B-\	8d/ 8g/	.
8G\ 8d\	8g/ 8b/	4r
8B-\J	8g/J 8dd/J	.
=21	=21	=21
2GG/ 2G/	2r	2r
==	==	==
*-	*-	*-
